X: 4
M: 4/4
L: 1/8
K: Gmaj
|: D2 |\
|: z2 |\
g2 ga gfed | c2 c2 c4 | a2 ab agfe | d2 d2 d4 |
g2 ga gfed | c2 d2 e2 d2 | efge fgaf | g2 g2 g2 :|


